openmetadata-ui/src/main/resources/ui/src/assets/svg/user.svg

<svg width="16" height="16" viewBox="0 0 16 16" fill="none" xmlns="http://www.w3.org/2000/svg">
<path d="M7.99837 7.30973C9.8758 7.30973 11.4032 5.7823 11.4032 3.90487C11.4032 2.02743 9.8758 0.5 7.99837 0.5C6.12094 0.5 4.59351 2.02743 4.59351 3.90487C4.59351 5.7823 6.12094 7.30973 7.99837 7.30973ZM7.99837 1.30287C9.4331 1.30287 10.6004 2.47014 10.6004 3.90487C10.6004 5.3396 9.4331 6.50686 7.99837 6.50686C6.56364 6.50686 5.39638 5.3396 5.39638 3.90487C5.39638 2.47014 6.56364 1.30287 7.99837 1.30287Z" fill="#37352F" stroke="#37352F" stroke-width="0.2"/>
<path d="M11.5523 8.40872C11.172 8.30841 10.7535 8.3568 10.4044 8.54146C9.6533 8.93867 8.84374 9.14008 7.99827 9.14008C7.15279 9.14008 6.34328 8.93867 5.59217 8.54146C5.24303 8.35685 4.82457 8.30847 4.44423 8.40877C2.76371 8.85174 1.58997 10.3762 1.58997 12.1159V13.3823C1.58997 14.55 2.53998 15.5 3.70762 15.5H12.2888C13.4565 15.5 14.4065 14.55 14.4065 13.3823V12.1158C14.4066 10.3761 13.2328 8.85169 11.5523 8.40872ZM13.6037 13.3822C13.6037 14.1072 13.0139 14.6971 12.2889 14.6971H3.70767C2.98268 14.6971 2.39289 14.1072 2.39289 13.3822V12.1158C2.39289 10.7404 3.32063 9.5352 4.6489 9.18504C4.71303 9.16813 4.77934 9.15983 4.84582 9.15983C4.97412 9.15983 5.10285 9.19087 5.21691 9.25114C6.08486 9.71017 7.02064 9.9429 7.99832 9.9429C8.976 9.9429 9.91183 9.71017 10.7797 9.25114C10.9528 9.15962 11.1598 9.13548 11.3477 9.18504C12.676 9.5352 13.6037 10.7404 13.6037 12.1158V13.3822Z" fill="#37352F" stroke="#37352F" stroke-width="0.2"/>
</svg>

<svg xmlns="http://www.w3.org/2000/svg" width="16" height="16" fill="currentColor"><path stroke="currentColor" stroke-width=".2" d="M7.998 7.31a3.409 3.409 0 0 0 3.405-3.405A3.409 3.409 0 0 0 7.998.5a3.409 3.409 0 0 0-3.404 3.405A3.409 3.409 0 0 0 7.998 7.31Zm0-6.007A2.605 2.605 0 0 1 10.6 3.905a2.605 2.605 0 0 1-2.602 2.602 2.605 2.605 0 0 1-2.602-2.602 2.605 2.605 0 0 1 2.602-2.602ZM11.552 8.409c-.38-.1-.798-.052-1.148.132a5.096 5.096 0 0 1-2.406.6 5.096 5.096 0 0 1-2.406-.6 1.607 1.607 0 0 0-1.148-.132 3.835 3.835 0 0 0-2.854 3.707v1.266A2.12 2.12 0 0 0 3.708 15.5h8.58a2.12 2.12 0 0 0 2.118-2.118v-1.266a3.835 3.835 0 0 0-2.854-3.707Zm2.052 4.973c0 .725-.59 1.315-1.315 1.315H3.708c-.725 0-1.315-.59-1.315-1.315v-1.266c0-1.376.928-2.58 2.256-2.931a.798.798 0 0 1 .568.066 5.89 5.89 0 0 0 2.781.692 5.89 5.89 0 0 0 2.782-.692.795.795 0 0 1 .568-.066 3.032 3.032 0 0 1 2.256 2.93v1.267Z"/></svg>
